X: 22373
T: Lad O'Beirne's
R: reel
M: 4/4
K: Fmajor
d2cA dAcA|GcAF GAFD|CF~F2 CFAc|dcde fagf|
d2cA dAcA|GcAF GAFD|CF~F2 DFBd|1 cbag f3e:|2 cbag f3g||
a2gf afgf|dgfd cFAd|c2Bd cdfa|gfga g2fg|
af~f2 afgf|dgfd cFAd|c2Bd cdfa|gfga f3g|
a2gf afgf|dgfd cFAd|c2Bd cdfa|gfga bagf|
~a3g ~f3c|dcfd cAFD|CF~F2 DFBd|cbag f3e||

